cached_logos/moxa-inc.svg

<svg xmlns="http://www.w3.org/2000/svg" role="img" viewBox="-3.38 -3.38 175.63 31.38"><title>Moxa Inc. logo</title><g fill="none" fill-rule="evenodd"><g fill="#008880"><g><path d="M165.161514 2.97268594L165.161514 2.97268594 165.161514 1.62146506 166.014511 1.62146506C166.600946 1.62146506 166.867508 1.8376604 166.867508 2.32409992 166.867508 2.7564906 166.547634 2.97268594 165.854574 2.97268594L165.161514 2.97268594zM167.347319 4.70224868L166.387697 3.24293012C166.92082 3.13483245 167.187382 2.81053944 167.187382 2.32409992 167.187382 1.6755139 166.760883 1.35122088 166.014511 1.35122088L164.84164 1.35122088 164.84164 4.86439518 165.161514 4.86439518 165.161514 3.29697896 165.854574 3.29697896 166.067823 3.29697896 167.027445 4.81034635 167.027445 4.86439518 167.400631 4.86439518 167.347319 4.70224868zM111.422713 12.3771833C111.262776 12.2690856 111.262776 12.0528903 111.422713 11.9447926L123.897792 1.56741623C124.057729 1.45931855 124.004416 1.35122088 123.844479 1.35122088L114.728076 1.35122088C114.514826 1.35122088 114.248265 1.45931855 114.088328 1.56741623L106.624606 7.89112996C106.464669 7.99922763 106.25142 7.99922763 106.091483 7.89112996L98.6810726 1.56741623C98.5211356 1.45931855 98.2545741 1.35122088 98.0413249 1.35122088L88.9249211 1.35122088C88.7116719 1.35122088 88.7116719 1.45931855 88.8716088 1.56741623L101.346688 11.9447926C101.506625 12.0528903 101.506625 12.2690856 101.346688 12.3771833L88.2318612 23.4571945C88.0719243 23.5652922 87.9652997 23.6733899 87.9652997 23.7274387L88.3384858 23.7274387 96.9217666 23.7274387C97.1350158 23.7274387 97.4015773 23.6193411 97.5615142 23.5112434L106.144795 16.3227483C106.304732 16.2146506 106.517981 16.2146506 106.677918 16.3227483L115.314511 23.5112434C115.474448 23.6193411 115.741009 23.7274387 115.954259 23.7274387L124.537539 23.7274387 124.910726 23.7274387C124.910726 23.7274387 124.804101 23.6193411 124.644164 23.4571945L111.422713 12.3771833z"/><path d="M167.080757 23.7274387C167.294006 23.7274387 167.347319 23.6193411 167.187382 23.4571945L150.127445 1.62146506C150.02082 1.45931855 149.754259 1.35122088 149.541009 1.35122088L142.503785 1.35122088C142.290536 1.35122088 142.077287 1.45931855 141.91735 1.62146506L124.910726 23.4571945C124.804101 23.6193411 124.857413 23.7274387 125.01735 23.7274387L133.014196 23.7274387C133.227445 23.7274387 133.440694 23.6193411 133.547319 23.4571945L145.755836 7.1884951C145.862461 7.0263486 146.07571 7.0263486 146.182334 7.1884951L158.337539 23.4571945C158.444164 23.6193411 158.710726 23.7274387 158.870662 23.7274387L167.080757 23.7274387zM82.4208202 12.3231345C82.4208202 17.2415785 76.2899054 20.5385574 68.6662461 20.5385574 61.0958991 20.5385574 54.9649842 17.1875296 54.9649842 12.3231345 54.9649842 7.45873928 61.0958991 4.10771149 68.6662461 4.10771149 76.2899054 4.10771149 82.4208202 7.45873928 82.4208202 12.3231345M89.5113565 12.3231345C89.5113565 5.51298121 80.1817035 0 68.7195584 0 57.2574132 0 47.9277603 5.51298121 47.9277603 12.3231345 47.9277603 19.1332877 57.2574132 24.7003178 68.7195584 24.7003178 80.1817035 24.7003178 89.5113565 19.1332877 89.5113565 12.3231345M165.907886 5.78322538C164.468454 5.78322538 163.242271 4.59415101 163.242271 3.08078362 163.242271 1.62146506 164.415142.378341848 165.907886.378341848 167.347319.378341848 168.573502 1.56741623 168.573502 3.08078362 168.573502 4.54010217 167.400631 5.78322538 165.907886 5.78322538M165.907886.108097671C164.255205.108097671 162.97571 1.45931855 162.97571 3.08078362 162.97571 4.75629751 164.308517 6.05346956 165.907886 6.05346956 167.560568 6.05346956 168.893375 4.70224868 168.893375 3.08078362 168.893375 1.45931855 167.560568.108097671 165.907886.108097671M34.0665615 1.35122088C33.8533123 1.35122088 33.6400631 1.45931855 33.5334385 1.62146506L22.0179811 18.2685064C21.9113565 18.4306529 21.7514196 18.4306529 21.5914826 18.2685064L10.0227129 1.6755139C9.91608833 1.51336739 9.64952681 1.40526972 9.48958991 1.40526972L.319873817 1.40526972C.159936909 1.35122088 0 1.51336739 0 1.72956273L0 23.4031457C0 23.6193411.159936909 23.7814876.37318612 23.7814876L7.89022082 23.7814876C8.10347003 23.7814876 8.26340694 23.6193411 8.26340694 23.4031457L8.26340694 8.91805783C8.26340694 8.70186249 8.37003155 8.70186249 8.47665615 8.864009L18.8725552 23.4571945C18.9791798 23.6193411 19.2457413 23.7274387 19.4056782 23.7274387L24.2570978 23.7274387C24.470347 23.7274387 24.6835962 23.6193411 24.7902208 23.4571945L35.1861199 8.80996016C35.2927445 8.64781366 35.3993691 8.70186249 35.3993691 8.864009L35.3993691 23.3490969C35.3993691 23.5652922 35.559306 23.7274387 35.7725552 23.7274387L43.2362776 23.7274387C43.4495268 23.7274387 43.6094637 23.5652922 43.6094637 23.3490969L43.6094637 1.72956273C43.6094637 1.51336739 43.4495268 1.35122088 43.2362776 1.35122088L34.0665615 1.35122088z"/></g></g></g></svg>

<svg xmlns="http://www.w3.org/2000/svg" role="img" viewBox="-3.38 -3.38 175.63 31.38"><title>Moxa Inc. logo</title><g fill="#008880" fill-rule="evenodd"><path d="M165.16151 2.97269V1.62147h.853c.58644 0 .853.21619.853.70263 0 .4324-.31988.64859-1.01294.64859h-.69306zm2.1858 1.72956l-.95961-1.45932c.53312-.1081.79968-.4324.79968-.91883 0-.64859-.4265-.97288-1.17287-.97288h-1.17287V4.8644h.31987V3.29698h.90631l.95962 1.51337v.05405h.3732l-.05332-.16215zm-55.9246 7.67493c-.15993-.1081-.15993-.32429 0-.43239L123.8978 1.56742c.15994-.1081.10663-.2162-.05331-.2162h-9.1164c-.21325 0-.47982.1081-.63975.2162l-7.46372 6.32371c-.15994.1081-.37319.1081-.53313 0l-7.4104-6.32371c-.15994-.1081-.4265-.2162-.63976-.2162h-9.1164c-.21325 0-.21325.1081-.05331.2162l12.47508 10.37737c.15994.1081.15994.3243 0 .4324l-13.11483 11.08c-.15994.1081-.26656.2162-.26656.27025h8.95647c.21325 0 .4798-.1081.63974-.2162l8.58329-7.1885c.15993-.10809.37318-.10809.53312 0l8.6366 7.1885c.15993.1081.42649.2162.63974.2162h8.95647l-.26657-.27025-13.22145-11.08z"/><path d="M167.08076 23.72744c.21325 0 .26656-.1081.10662-.27025L150.12745 1.62147c-.10663-.16215-.3732-.27025-.58644-.27025h-7.03723c-.21324 0-.4265.1081-.58643.27025l-17.00662 21.83572c-.10663.16215-.05332.27025.10662.27025h7.99685c.21325 0 .4265-.1081.53312-.27025l12.20852-16.2687c.10662-.16214.31987-.16214.4265 0l12.1552 16.2687c.10662.16215.37319.27025.53312.27025h8.2101zm-84.65994-11.4043c0 4.91844-6.13091 8.21542-13.75457 8.21542-7.57035 0-13.70127-3.35103-13.70127-8.21543s6.13092-8.21542 13.70127-8.21542c7.62366 0 13.75457 3.35103 13.75457 8.21542m7.09054 0C89.51136 5.51298 80.1817 0 68.71956 0c-11.46215 0-20.7918 5.51298-20.7918 12.32313 0 6.81016 9.32965 12.37719 20.7918 12.37719 11.46214 0 20.7918-5.56703 20.7918-12.37719m76.39653-6.5399c-1.43944 0-2.66562-1.18908-2.66562-2.70245 0-1.45931 1.17287-2.70244 2.66562-2.70244 1.43943 0 2.66561 1.18908 2.66561 2.70244 0 1.45932-1.17287 2.70245-2.66561 2.70245m0-5.67513c-1.65269 0-2.93218 1.35122-2.93218 2.97268 0 1.67552 1.3328 2.97269 2.93218 2.97269 1.65268 0 2.98548-1.35122 2.98548-2.97269 0-1.62146-1.3328-2.97268-2.98548-2.97268M34.06656 1.35122c-.21325 0-.4265.1081-.53312.27025L22.01798 18.2685c-.10662.16214-.26656.16214-.4265 0L10.02271 1.6755c-.10662-.16214-.37318-.27024-.53312-.27024H.31987C.15994 1.35122 0 1.51337 0 1.72957v21.67358c0 .2162.15994.37834.37319.37834h7.51703c.21325 0 .37319-.16215.37319-.37834V8.91805c0-.21619.10662-.21619.21325-.05404l10.3959 14.59318c.10662.16215.37318.27025.53312.27025h4.85142c.21325 0 .4265-.1081.53312-.27025l10.3959-14.64723c.10662-.16215.21325-.1081.21325.05405V23.3491c0 .2162.15994.37834.37319.37834h7.46372c.21325 0 .37318-.16215.37318-.37834V1.72956c0-.2162-.15993-.37834-.37318-.37834h-9.16972z"/></g></svg>
